X:1
T:How Sweet Thou Art to Me
T:How Sweet Thou Art to Me
T:Sleep, Gentle Sleep
T:Arthur Weld from opus 38
T:W. H Denny
T:By IMSLP Public Domain
T:By IMSLP Public Domain
T:By IMSLP Public Domain
T:By IMSLP Public Domain
T:By IMSLP Public Domain
C:Arthur Weld from opus 38
Z:W. H. Denny
Z:By IMSLP Public Domain
%%score 1 { ( 2 4 6 ) | ( 3 5 ) }
L:1/8
Q:1/4=70
M:3/4
K:G
V:1 treble nm="Voice"
V:2 treble nm="Piano"
V:4 treble 
V:6 treble 
V:3 bass 
V:5 bass 
V:1
"^Andante grazioso" z6 | z6 | B4 B3/2 B/ | B4 B2 | B3 A G A | B4 d2 | d2 d2 d3/2 e/ | (f2 d2) A2 | %8
w: ||Sleep, gen\- tle|Sleep! how|sweet thou art to|me! All|sor\- row is for\-|got- * ten|
w: ||On pleas\- ure's|wave my|bark is gen\- tly|toss'd And|dream\- y winds fill|out _ the|
 (B2- (3BdB) (3(dB^c) | d4 d2 | B4 B2 | (B2 c2) d2 | e2 e2 d2 | ^c4 c2 | ^c4 c2 | (^c2 d2) e2 | %16
w: in _ _ _ thy _ _|arms, From|grief and|care _ in|slum\- ber I'm|free, And|calm'd are|all _ my|
w: flow\-- * * * ing _ _|sail, In|wel\- come|sòeep _ my|dark cares all|lost While|mu\- sic|soft _ sounds|
 f2 f2 e2 | ^d4 B2 |!f! g4 g2 | (g2 f2) e2 | g2 d2 d2 | d2 c2 B2 | c3/2 c/ c2 c2 | (c2 B2) A2 | %24
w: fears and a\-|larms. 'Midst|fra. grant|groves _ where|all's bright and|fair, _ By|sil\- ver seas un|sands _ of|
w: o'er hill and|dale. The|hap\- py|past _ a\-|gain I re\-|view, _ On|child\- hood's scenes a\-|gain _ I|
 (c2 B2) A2 | G4 G2 | A2 A2 A2 | (^A2 ^^G2) A2 | B4 e2 | (d2 c2) B2 | B2 A2 G2 | (B2 A2) G2 | %32
w: bur\- * nishìd|gold, While|la\- den the|breeze _ with|per\- fumes|rare, _ I|wand\- 'ring re\-|call _ sweet|
w: fond\- * ly|look, Sweet|slum\- ber, life's|page _ I|tuen with|you, _ As|if of some|well _ re\-|
 B4 A2 | G6 | B4 B3/2 B/ | B4 B2 | B3 A G A | (c2 B4- | B6-) | B z z2 z2 | z6 | z6!D.C.! |] %42
w: days of|old.|Sleep, gen\- tle|Sleep! how|sweet thou art to|me! _|_||||
w: mem\- ber'd|book.|Sleep, gen- tle|Sleep! how|sweet thou art to|me! _|_||||
V:2
 [DGB]2!p! (3(DGB) [CF^Ad]2 | [DGB]2 (3(DGB) [CF^Ad]2 |!p! [GB]2 (3(DGB) [FB]>[FB] | %3
 [GB]4 [=FGB]2 | [CEGB]3 A [CEG][CFA] | [DGB]4 x x | [DGd]2 (3(DGd) [D^Gd]>[Ee] | %7
 [Adf]2 [FAd]2 [DFA]2 | (B2- (3BdB) (3(dB^c) | [Fd]6 | [GB]2 (3(DGB) [FB]>[FB] | %11
 [GB]2 [Fc]2 [=FGA]2 | [EGe]2 (3(EGe) [E^Gd]2 | [EA^c]4 [EAc]2 | [A^c]2 (3(EAc) [^Gc]>[Gc] | %15
 [A^c]2 [^Gd]2 [=GAB]2 | [FAf]2 (3(FAf) [F^Ae]2 |!<(! [FB^d]2 [F_Bd]2 [FA=Bd]2!<)! | %18
!f! [GBeg]2 (3(GBe) [GBeg]2 | [G^cg]2 (3(fA=c) [Gce]2 | [GBdg]2 (3(DFB) [DGBd]2 | %21
 [D^Gd]2!>(! (3(cEG) [DGB]2!>)! | [CEAc]2 (3(CEA) [CEAc]2 | [C_EAc]2 (3(BCE) [CEA]2 | %24
 [=EFc]2 [DFB]2 [CFA]2 | [B,EG]4 (3(B,EG) | [CEA]2 (3(CEG) [CGA]2 | [^CG^A]2 [=CG=A]2 [^CG^A]2 | %28
 [DGB]2 (3(DGB) !>![EGe]2 | !>![DGd]2 !>!c2 !>![DB]2 |!>(! B2 A2 G2!>)! |!>(! B2 A2 G2!>)! | %32
 B4 [CFA]2 |!>(! [B,DG]6!>)! |!mf! [GB]2 (3(DGB) [FB]>[FB] | [GB]4 [=FGB]2 | [CEGB]3 A [CEG][CFA] | %37
!>(! [DGB]6!>)! |!>(! (3(FGB) (3(^cdf) (3(gbd')!>)! |!p! g' z!pp! [B,FB]3 [B,FB] | %40
!>(! [B,DGB]6-!>)! | [B,DGB] z z4 |] %42
V:3
 (3(G,,D,G,) [G,,,G,,]2 [D,,D,]2 | (3(G,,D,G,) [G,,,G,,]2 [D,,D,]2 | %2
 (3(G,,D,G,) [G,,D,]2 [G,,_E,]>[G,,E,] | (3(G,,^C,D,) (3(B,G,A,) (3(B,A,G,) | %4
 (3(C,E,G,) C z [D,,D,]2 | (3(G,,D,G,) B, z z2 | (3(B,,D,G,) [B,,,B,,]2 [_B,,,_B,,]2 | %7
 (3([A,,,A,,]D,F,) (3(A,D,F,) (3(A,DF) | (3(E,,B,,E,) G, z [A,,E,]2 | %9
 [D,,D,] [D,,D,]2 [D,,D,]2 [D,,D,] | (3(G,,D,G,) [G,,D,]2 [G,,_E,]>[G,,E,] | %11
 (3(G,,D,G,) (3(A,G,A,) (3(B,A,B,) | (3(C,G,C) [C,,C,]2 [_B,,,_B,,]2 | %13
 (3([A,,,A,,]^C,E,) (3(A,C,E,) (3(A,^CE) | (3(A,,E,A,) [A,,E,]2 [A,,=F,]>[A,,F,] | %15
 (3(A,,E,A,) (3(B,A,B,) (3(^CB,C) | (3(D,A,D) [D,,D,]2 [=C,,=C,]2 | %17
 (3([B,,,B,,]^D,F,) (3(=B,^C^^C) (3(^D^CD) | (3(E,G,B,) E2 [E,,E,]2 | %19
 (3([A,,,A,,]E,A,) ^C2 [A,,,A,,]2 | (3(D,F,G,) B,2 [D,,D,]2 | (3(E,^G,B,) D2 [E,,E,]2 | %22
 (3([A,,,A,,]C,E,) A,2 [A,,,A,,]2 | (3(A,,C,_E,) A,2 [A,,,A,,]2 | %24
 [D,,D,] [D,,D,]2 [D,,D,]2 [^D,,^D,] | (3([E,,E,]^A,,B,,) (3(E,F,G,) [E,,E,]2 | %26
 (3(C,E,G,) A,2 [E,,E,]2 | (3([_E,,_E,]_B,,E,) G,2 [E,,E,]2 | %28
 (3([D,,D,]G,,B,,) [D,,D,]2 !>![C,,C,]2 | !>![B,,,B,,]2 !>![A,,,A,,]2 !>![G,,,G,,]2 | %30
 (3(C,,G,,C,) E,2 [C,,C,]2 | (3([A,,,A,,]C,^D,) A,2 [A,,,A,,]2 | %32
 [D,,D,] [D,,D,]2 [D,,D,]2 [D,,D,] | (3(G,,^C,D,) (3(F,G,^A,) (3(B,DG) | %34
 (3(G,,D,G,) [G,,D,]2 [G,,_E,]>[G,,E,] | (3(G,,^C,D,) (3(B,G,A,) (3(B,A,G,) | %36
 (3(C,E,G,) C z [D,,D,]2 | (3(G,,^C,D,) (3(F,G,^A,) (3(B,^CD) |"^morendo" [G,,D,B,]6- | %39
 [G,,D,B,] z [G,,_E,]3 [G,,E,] | [G,,D,]4 [D,,D,]2 |!ppp! [G,,,G,,]2 z2 z2 |] %42
V:4
 x6 | x6 | x6 | G2 F2 x2 | x6 | x2 (3z (^CD) (3(GB^c) | x6 | x6 | [DG]4 [EG]2 | %9
 z2 [E=c][DB][CA][^C^A] | x6 | x6 | x6 | x6 | x6 | x6 | x6 | x6 | x6 | x6 | x6 | x6 | x6 | x6 | %24
 x6 | x6 | x6 | x6 | x6 | x2 (3(DEF) (3G^F=F | [CE]4 [CE]2 | [C^D]4 [CD]2 | C4 x2 | x6 | x6 | %35
 G2 F2 x2 | x6 | x6 | x6 | x6 | x6 | x6 |] %42
V:5
 x6 | x6 | x6 | x6 | x6 | x6 | x6 | x6 | x6 | x6 | x6 | x6 | x6 | x6 | x6 | x6 | x6 | x6 | %18
 E,,2 x4 | x6 | D,,2 x4 | E,,2 x4 | x6 | A,,,2 x4 | x6 | x6 | x6 | x6 | x6 | x6 | x6 | x6 | x6 | %33
 x6 | x6 | x6 | x6 | x6 | x6 | x6 | x6 | x6 |] %42
V:6
 x6 | x6 | x6 | x6 | x6 | x6 | x6 | x6 | x6 | x6 | x6 | x6 | x6 | x6 | x6 | x6 | x6 | x6 | x6 | %19
 x6 | x6 | x6 | x6 | x6 | x6 | x6 | x6 | x6 | x6 | x6 | x6 | x6 | z E2 ^E x2 | x6 | x6 | x6 | x6 | %37
 x6 | x6 | x6 | x6 | x6 |] %42

